src/svg/icon-vimeo.svg

<svg fill="none" height="26" viewBox="0 0 26 26" width="26" xmlns="http://www.w3.org/2000/svg"><path d="m18.6665 1h-11.34352c-3.47658 0-6.32298 2.90941-6.32298 6.45952v11.08098c0 3.5501 2.8464 6.4595 6.32298 6.4595h11.34352c3.4766 0 6.323-2.9094 6.323-6.4595v-11.08098c0-3.55011-2.8464-6.45952-6.323-6.45952z" stroke="#1300ed" stroke-miterlimit="10" stroke-width="1.5"/><path d="m17.7363 8.00284c-1.7432-.06338-2.9207.93602-3.5419 2.98246.3195-.1429.6301-.2069.9308-.2069.6385 0 .9208.3651.8454 1.0906-.0377.4395-.3185 1.0785-.8444 1.9192-.5285.8407-.9234 1.2618-1.1864 1.2618-.7972 0-1.2765-3.8153-1.4389-4.8572-.2257-1.44827-.8276-2.12554-1.8055-2.03073-.89779.08538-2.46447 1.70182-3.6954 2.79763l.59137.771c.56308-.3991.89151-.5992.98527-.5992.98002 0 1.45456 3.335 2.21566 5.8152.5107 1.3687 1.123 2.0533 1.8611 2.0533 1.1858 0 2.6305-1.123 4.3423-3.3701 1.6525-2.1513 2.5084-3.8468 2.5634-5.0835l.0068-.0052c.0702-1.65786-.5348-2.50641-1.8296-2.53836z" fill="#1300ed"/></svg>

<svg width="26" height="26" viewBox="0 0 26 26" fill="none" xmlns="http://www.w3.org/2000/svg">
<path d="M18.6665 1H7.32298C3.8464 1 1 3.90941 1 7.45952V18.5405C1 22.0906 3.8464 25 7.32298 25H18.6665C22.1431 25 24.9895 22.0906 24.9895 18.5405V7.45952C24.9895 3.90941 22.1431 1 18.6665 1Z" stroke="#1300ED" stroke-width="1.5" stroke-miterlimit="10"/>
<path d="M17.7363 8.00284C15.9931 7.93946 14.8156 8.93886 14.1944 10.9853C14.5139 10.8424 14.8245 10.7784 15.1252 10.7784C15.7637 10.7784 16.046 11.1435 15.9706 11.869C15.9329 12.3085 15.6521 12.9475 15.1262 13.7882C14.5977 14.6289 14.2028 15.05 13.9398 15.05C13.1426 15.05 12.6633 11.2347 12.5009 10.1928C12.2752 8.74453 11.6733 8.06726 10.6954 8.16207C9.79761 8.24745 8.23093 9.86389 7 10.9597L7.59137 11.7307C8.15445 11.3316 8.48288 11.1315 8.57664 11.1315C9.55666 11.1315 10.0312 14.4665 10.7923 16.9467C11.303 18.3154 11.9153 19 12.6534 19C13.8392 19 15.2839 17.877 16.9957 15.6299C18.6482 13.4786 19.5041 11.7831 19.5591 10.5464L19.5659 10.5412C19.6361 8.88334 19.0311 8.03479 17.7363 8.00284Z" fill="#1300ED"/>
</svg>
